outputs/icons/device/usb_alt_sharp.svg

<svg width="1200" height="1200" viewBox="0 0 1200 1200" fill="none" xmlns="http://www.w3.org/2000/svg"><g clip-path="url(#clip0_829_1808)"><path d="M750 350V550H800V650H650V250H750L600 50L450.002 250H550V650H400.002V546.5C435.002 528 460.002 492.5 460.002 450C460.002 389.5 410.503 340 350.002 340C289.502 340 240.002 389.5 240.002 450C240.002 492.5 265.002 528 300.002 546.5V650C300.002 705.5 344.502 750 400.002 750H550V902.5C514.5 921 490.003 957.5 490.003 1000C490.003 1061 539.5 1110 600 1110C660.5 1110 710 1061 710 1000C710 957.5 685.5 921 650 902.5V750H800C855.505 750 900 705.5 900 650V550H950V350H750Z" fill="black"/></g><defs><clipPath id="clip0_829_1808"><path width="24" fill="white" d="M0 0H1200V1200H0V0z"/></clipPath></defs></svg>

<svg xmlns="http://www.w3.org/2000/svg" width="1200" height="1200" fill="none"><g clip-path="url(#a)"><path fill="#000" d="M750 350v200h50v100H650V250h100L600 50 450.002 250H550v400H400.002V546.5c35-18.5 60-54 60-96.5 0-60.5-49.499-110-110-110s-110 49.5-110 110c0 42.5 25 78 60 96.5V650c0 55.5 44.5 100 100 100H550v152.5c-35.5 18.5-59.997 55-59.997 97.5 0 61 49.497 110 109.997 110s110-49 110-110c0-42.5-24.5-79-60-97.5V750h150c55.505 0 100-44.5 100-100V550h50V350z"/></g><defs><clipPath id="a"><path fill="#fff" d="M0 0h1200v1200H0z"/></clipPath></defs></svg>
